app/assets/images/paypal-logo.svg

<svg fill="none" height="573" viewBox="0 0 2361 573" width="2361" xmlns="http://www.w3.org/2000/svg" xmlns:xlink="http://www.w3.org/1999/xlink"><clipPath id="a"><path d="m0 0h2361v573h-2361z"/></clipPath><g clip-path="url(#a)" fill="#000"><path d="m1818.26 128.164h-129.82c-8.87 0-16.46 6.478-17.8 15.232l-52.51 332.956c-1.05 6.595 4.03 12.49 10.68 12.49h66.63c6.18 0 11.49-4.494 12.49-10.68l14.87-94.372c1.4-8.754 8.93-15.233 17.8-15.233h41.08c85.53 0 134.83-41.378 147.73-123.436 5.78-35.892.23-64.081-16.57-83.808-18.44-21.71-51.17-33.149-94.64-33.149zm14.99 121.568c-7.11 46.631-42.71 46.631-77.13 46.631h-19.6l13.71-87.018c.81-5.252 5.36-9.162 10.67-9.162h8.99c23.45 0 45.57 0 57 13.364 6.83 7.996 8.87 19.844 6.31 36.185z"/><path d="m892.296 128.164h-129.821c-8.869 0-16.454 6.478-17.796 15.232l-52.512 332.956c-1.05 6.595 4.026 12.49 10.678 12.49h61.964c8.868 0 16.454-6.478 17.796-15.233l14.178-89.819c1.4-8.754 8.927-15.233 17.796-15.233h41.076c85.536 0 134.839-41.378 147.735-123.436 5.77-35.892.23-64.081-16.572-83.808-18.437-21.71-51.17-33.149-94.638-33.149zm14.995 121.568c-7.118 46.631-42.709 46.631-77.134 46.631h-19.604l13.711-87.018c.817-5.252 5.368-9.162 10.678-9.162h8.985c23.455 0 45.569 0 56.946 13.364 6.827 7.996 8.869 19.844 6.302 36.185z"/><path d="m1280.36 248.273h-62.14c-5.31 0-9.86 3.852-10.68 9.163l-2.74 17.392-4.32-6.304c-13.47-19.551-43.46-26.087-73.4-26.087-68.67 0-127.367 52.059-138.745 125.07-5.951 36.418 2.509 71.26 23.165 95.539 18.96 22.294 46.03 31.632 78.3 31.632 55.37 0 86.06-35.601 86.06-35.601l-2.8 17.275c-1.05 6.595 4.03 12.548 10.68 12.548h55.95c8.87 0 16.46-6.478 17.8-15.232l33.61-212.847c1.05-6.595-4.03-12.49-10.68-12.49zm-86.64 120.985c-6.01 35.542-34.2 59.354-70.2 59.354-18.02 0-32.44-5.778-41.71-16.808-9.22-10.914-12.66-26.38-9.75-43.655 5.6-35.193 34.25-59.822 69.67-59.822 17.68 0 31.97 5.837 41.42 16.925 9.52 11.148 13.25 26.789 10.57 43.947z"/><path d="m2206.26 248.273h-62.13c-5.31 0-9.87 3.852-10.68 9.163l-2.74 17.392-4.32-6.304c-13.48-19.551-43.47-26.087-73.4-26.087-68.68 0-127.37 52.059-138.75 125.07-5.95 36.418 2.51 71.26 23.16 95.539 18.97 22.294 46.04 31.632 78.3 31.632 55.38 0 86.07-35.601 86.07-35.601l-2.81 17.275c-1.05 6.595 4.03 12.548 10.68 12.548h55.96c8.87 0 16.45-6.478 17.79-15.232l33.61-212.847c1.05-6.595-4.03-12.49-10.68-12.49zm-86.64 120.985c-6.01 35.542-34.19 59.354-70.19 59.354-18.03 0-32.44-5.778-41.72-16.808-9.22-10.914-12.66-26.38-9.74-43.655 5.6-35.193 34.25-59.822 69.66-59.822 17.68 0 31.98 5.837 41.43 16.925 9.51 11.148 13.24 26.789 10.56 43.947z"/><path d="m1611.42 248.273h-62.49c-5.95 0-11.55 2.976-14.94 7.937l-86.17 126.996-36.53-122.035c-2.28-7.645-9.34-12.898-17.27-12.898h-61.44c-7.41 0-12.66 7.295-10.27 14.299l68.79 201.991-64.7 91.337c-5.08 7.179 0 17.1 8.81 17.1h62.43c5.89 0 11.43-2.918 14.82-7.762l207.77-299.982c4.96-7.178-.17-16.983-8.87-16.983z"/><path d="m2279.55 137.268-53.27 339.084c-1.05 6.595 4.02 12.49 10.67 12.49h53.57c8.87 0 16.45-6.478 17.79-15.233l52.51-332.956c1.06-6.595-4.02-12.489-10.67-12.489h-59.98c-5.31 0-9.86 3.851-10.68 9.162z"/><path d="m189.802 118.942c4.609-2.218 9.569-3.326 14.703-3.326h139.566c17.387 0 33.491 1.167 47.902 3.501 4.259.701 8.402 1.459 12.428 2.393 4.026.876 7.993 1.926 11.844 3.035 1.926.584 3.793 1.167 5.66 1.751 1.867.642 3.617 1.342 5.426 2.042 2.801-38.1684-7.818-64.7816-26.256-85.15-26.956-29.8231-74.45-43.188-135.831-43.188h-165.7629c-12.5446 0-23.222 9.1045-25.1475 21.5356l-74.158657 470.2244c-1.458673 9.279 5.717977 17.684 15.111757 17.684h97.6723l57.938-365.056c1.751-11.03 8.811-20.543 18.905-25.387z"/><path d="m414.495 148.59c-1.575-.525-3.209-1.051-4.843-1.517-3.325-.993-6.768-1.868-10.327-2.627-3.617-.817-7.293-1.517-11.086-2.101-13.186-2.159-28.065-3.21-44.168-3.21h-129.588c-3.443 0-6.71.759-9.628 2.16-6.418 3.093-11.202 9.163-12.369 16.633l-23.397 148.823c2.509-.466 5.134-.758 7.993-.758h52.221c27.714 0 52.453-3.093 74.333-9.397 55.313-15.874 92.48-51.884 111.151-109.137 4.143-12.664 7.177-24.395 9.277-35.309-3.034-1.284-6.185-2.51-9.51-3.618z"/><path d="m462.514 175.67c-4.492-5.136-9.977-9.396-15.812-13.365-14.47 69.918-57.529 168.258-219.091 168.258-.351 0-40.026-.116-40.026-.116-12.545 0-23.106 9.104-25.089 21.535 0 0-31.099 196.039-32.616 206.311-1.226 8.17 5.834 14.765 13.244 14.765h80.402c10.969 0 20.305-7.995 21.997-18.792l19.488-121.51c1.692-10.856 11.027-18.793 21.996-18.793h13.887c89.737 0 160.045-36.476 180.583-141.937.584-3.151 1.167-6.303 1.634-9.455 4.259-35.367-1.459-65.073-20.538-86.784z"/></g></svg>

<svg width="2361" height="573" viewBox="0 0 2361 573" fill="none" xmlns="http://www.w3.org/2000/svg">
<g clip-path="url(#clip0_864_139)">
<path d="M1818.26 128.164H1688.44C1679.57 128.164 1671.98 134.642 1670.64 143.396L1618.13 476.352C1617.08 482.947 1622.16 488.842 1628.81 488.842H1695.44C1701.62 488.842 1706.93 484.348 1707.93 478.162L1722.8 383.79C1724.2 375.036 1731.73 368.557 1740.6 368.557H1781.68C1867.21 368.557 1916.51 327.179 1929.41 245.121C1935.19 209.229 1929.64 181.04 1912.84 161.313C1894.4 139.603 1861.67 128.164 1818.2 128.164H1818.26ZM1833.25 249.732C1826.14 296.363 1790.54 296.363 1756.12 296.363H1736.52L1750.23 209.345C1751.04 204.093 1755.59 200.183 1760.9 200.183H1769.89C1793.34 200.183 1815.46 200.183 1826.89 213.547C1833.72 221.543 1835.76 233.391 1833.2 249.732H1833.25Z" fill="black"/>
<path d="M892.296 128.164H762.475C753.606 128.164 746.021 134.642 744.679 143.396L692.167 476.352C691.117 482.947 696.193 488.842 702.845 488.842H764.809C773.677 488.842 781.263 482.364 782.605 473.609L796.783 383.79C798.183 375.036 805.71 368.557 814.579 368.557H855.655C941.191 368.557 990.494 327.179 1003.39 245.121C1009.16 209.229 1003.62 181.04 986.818 161.313C968.381 139.603 935.648 128.164 892.18 128.164H892.296ZM907.291 249.732C900.173 296.363 864.582 296.363 830.157 296.363H810.553L824.264 209.345C825.081 204.093 829.632 200.183 834.942 200.183H843.927C867.382 200.183 889.496 200.183 900.873 213.547C907.7 221.543 909.742 233.391 907.175 249.732H907.291Z" fill="black"/>
<path d="M1280.36 248.273H1218.22C1212.91 248.273 1208.36 252.125 1207.54 257.436L1204.8 274.828L1200.48 268.524C1187.01 248.973 1157.02 242.437 1127.08 242.437C1058.41 242.437 999.713 294.496 988.335 367.507C982.384 403.925 990.844 438.767 1011.5 463.046C1030.46 485.34 1057.53 494.678 1089.8 494.678C1145.17 494.678 1175.86 459.077 1175.86 459.077L1173.06 476.352C1172.01 482.947 1177.09 488.9 1183.74 488.9H1239.69C1248.56 488.9 1256.15 482.422 1257.49 473.668L1291.1 260.821C1292.15 254.226 1287.07 248.331 1280.42 248.331L1280.36 248.273ZM1193.72 369.258C1187.71 404.8 1159.52 428.612 1123.52 428.612C1105.5 428.612 1091.08 422.834 1081.81 411.804C1072.59 400.89 1069.15 385.424 1072.06 368.149C1077.66 332.956 1106.31 308.327 1141.73 308.327C1159.41 308.327 1173.7 314.164 1183.15 325.252C1192.67 336.4 1196.4 352.041 1193.72 369.199V369.258Z" fill="black"/>
<path d="M2206.26 248.273H2144.13C2138.82 248.273 2134.26 252.125 2133.45 257.436L2130.71 274.828L2126.39 268.524C2112.91 248.973 2082.92 242.437 2052.99 242.437C1984.31 242.437 1925.62 294.496 1914.24 367.507C1908.29 403.925 1916.75 438.767 1937.4 463.046C1956.37 485.34 1983.44 494.678 2015.7 494.678C2071.08 494.678 2101.77 459.077 2101.77 459.077L2098.96 476.352C2097.91 482.947 2102.99 488.9 2109.64 488.9H2165.6C2174.47 488.9 2182.05 482.422 2183.39 473.668L2217 260.821C2218.05 254.226 2212.97 248.331 2206.32 248.331L2206.26 248.273ZM2119.62 369.258C2113.61 404.8 2085.43 428.612 2049.43 428.612C2031.4 428.612 2016.99 422.834 2007.71 411.804C1998.49 400.89 1995.05 385.424 1997.97 368.149C2003.57 332.956 2032.22 308.327 2067.63 308.327C2085.31 308.327 2099.61 314.164 2109.06 325.252C2118.57 336.4 2122.3 352.041 2119.62 369.199V369.258Z" fill="black"/>
<path d="M1611.42 248.273H1548.93C1542.98 248.273 1537.38 251.249 1533.99 256.21L1447.82 383.206L1411.29 261.171C1409.01 253.526 1401.95 248.273 1394.02 248.273H1332.58C1325.17 248.273 1319.92 255.568 1322.31 262.572L1391.1 464.563L1326.4 555.9C1321.32 563.079 1326.4 573 1335.21 573H1397.64C1403.53 573 1409.07 570.082 1412.46 565.238L1620.23 265.256C1625.19 258.078 1620.06 248.273 1611.36 248.273H1611.42Z" fill="black"/>
<path d="M2279.55 137.268L2226.28 476.352C2225.23 482.947 2230.3 488.842 2236.95 488.842H2290.52C2299.39 488.842 2306.97 482.364 2308.31 473.609L2360.82 140.653C2361.88 134.058 2356.8 128.164 2350.15 128.164H2290.17C2284.86 128.164 2280.31 132.015 2279.49 137.326L2279.55 137.268Z" fill="black"/>
<path d="M189.802 118.942C194.411 116.724 199.371 115.616 204.505 115.616H344.071C361.458 115.616 377.562 116.783 391.973 119.117C396.232 119.818 400.375 120.576 404.401 121.51C408.427 122.386 412.394 123.436 416.245 124.545C418.171 125.129 420.038 125.712 421.905 126.296C423.772 126.938 425.522 127.638 427.331 128.338C430.132 90.1696 419.513 63.5564 401.075 43.188C374.119 13.3649 326.625 0 265.244 0H99.4811C86.9365 0 76.2591 9.1045 74.3336 21.5356L0.174943 491.76C-1.28373 501.039 5.89292 509.444 15.2867 509.444H112.959L170.897 144.388C172.648 133.358 179.708 123.845 189.802 119.001V118.942Z" fill="black"/>
<path d="M414.495 148.59C412.92 148.065 411.286 147.539 409.652 147.073C406.327 146.08 402.884 145.205 399.325 144.446C395.708 143.629 392.032 142.929 388.239 142.345C375.053 140.186 360.174 139.135 344.071 139.135H214.483C211.04 139.135 207.773 139.894 204.855 141.295C198.437 144.388 193.653 150.458 192.486 157.928L169.089 306.751C171.598 306.285 174.223 305.993 177.082 305.993H229.303C257.017 305.993 281.756 302.9 303.636 296.596C358.949 280.722 396.116 244.712 414.787 187.459C418.93 174.795 421.964 163.064 424.064 152.15C421.03 150.866 417.879 149.64 414.554 148.532L414.495 148.59Z" fill="black"/>
<path d="M462.514 175.67C458.022 170.534 452.537 166.274 446.702 162.305C432.232 232.223 389.173 330.563 227.611 330.563C227.26 330.563 187.585 330.447 187.585 330.447C175.04 330.447 164.479 339.551 162.496 351.982C162.496 351.982 131.397 548.021 129.88 558.293C128.654 566.463 135.714 573.058 143.124 573.058H223.526C234.495 573.058 243.831 565.063 245.523 554.266L265.011 432.756C266.703 421.9 276.038 413.963 287.007 413.963H300.894C390.631 413.963 460.939 377.487 481.477 272.026C482.061 268.875 482.644 265.723 483.111 262.571C487.37 227.204 481.652 197.498 462.573 175.787L462.514 175.67Z" fill="black"/>
</g>
<defs>
<clipPath id="clip0_864_139">
<rect width="2361" height="573" fill="white"/>
</clipPath>
</defs>
</svg>
